!!!OTL: Xiuzhenzha
!!!ARE: Asia, China,ˇHeilongjiang, Mudanjiang
!! III, 65
!!!SCT: C1548
!!!YEM: Copyright 1995, estate of Helmut Schaffrath.
**kern
*ICvox
*Ivox
*M2/4
*k[f#c#g#d#]
*E:
{8b
8ee
8cc#
8b
=1
8b
8g#
8f#
8g#
=2
8b
8ee
8cc#
8b
=3
8ee
8g#
4f#}
=4
{4e
8e
8c#
=5
4b
8g#
8b
=6
8f#
8e
8c#
16B
16c#
=7
2e}
=8
{8e
4e
8c#
=9
4b
8b
8g#
=10
8e
8f#
8b
8g#
=11
2f#}
=12
{4B
8B
8b
=13
8f#
16g#
16f#
4e
=14
8f#
8e
8c#
16d#
16c#
=15
2B}
=16
{8b
8ee
8cc#
8b
=17
8ee
8g#
8f#
8g#
=18
8b
8ee
8cc#
8b
=19
8ee
8g#
8f#
8g#}
=20
{4e
8e
8c#
=21
4b
8g#
8b
=22
8f#
8e
8c#
16B
16c#
=23
2e}
=24
{8e
4e
8c#
=25
4b
8b
8g#
=26
8e
8f#
8b
8g#
=27
2f#}
=28
{8B
8c#
4e
=29
4.f#
8e
=30
8c#
8c#
8d#
8c#
=31
2B}
=32
{8b
8ee
8cc#
8b
=33
8ee
8g#
8f#
8g#
=34
8b
8ee
8cc#
8b
=35
8ee
8g#
4f#}
=36
{4e
8e
8c#
=37
4b
8g#
8b
=38
8f#
8e
8c#
16B
16c#
=39
2e}
=40
{8e
4e
8c#
=41
4b
8b
8g#
=42
8e
8f#
8b
8g#
=43
2f#}
=44
{8B
8c#
4e
=45
8f#
16g#
16f#
4e
=46
8f#
8e
8c#
16d#
16c#
=47
2B}
=48
{8b
8g#
8b
8g#
=49
8f#
8g#
4f#
=50
8B
8c#
4e
=51
8f#
16g#
16f#
4e
=52
8f#
8e
8c#
16d#
16c#
=53
2B}
==
!!!AGN: Xiaodiao. FunÅ Xiuhua
!!!AMT: simple duple
!!!AIN: vox
!!!EED: Helmut Schaffrath
!!!EEV: 1.0
*-
